layouts/icon-pack/armor_shield_heavy.svg

<?xml version="1.0" encoding="UTF-8"?>
<svg width="1200pt" height="1200pt" version="1.1" viewBox="0 0 1200 1200" xmlns="http://www.w3.org/2000/svg">
 <g fill="#fff">
  <path d="m819.94 775.1c17.629-19.191 29.82-42.734 35.32-68.203 24.023-112.5 34.473-227.48 31.125-342.47-0.17578-4.9805-2.4414-9.6602-6.2422-12.887-3.8008-3.2305-8.7812-4.7109-13.727-4.082-128.77 16.242-213.98-32.672-255.47-65.625-3.1445-2.5156-7.0469-3.8867-11.074-3.8867s-7.9297 1.3711-11.074 3.8867c-35.766 28.547-104.18 68.883-205.1 68.883-16.824-0.019531-33.633-1.1016-50.32-3.2344-4.9375-0.60156-9.8984 0.89844-13.672 4.1367-3.7773 3.2344-6.0195 7.9102-6.1797 12.879-3.3477 114.98 7.1016 229.95 31.125 342.45 5.5039 25.469 17.695 49.012 35.32 68.203 35.789 39 105.07 105.98 192.45 149.04 17.34 8.5078 37.645 8.5078 54.984 0 87.445-43.102 156.75-110.09 192.54-149.09z"/>
  <path d="m618.54 77.766c-4.7852-5.1562-11.504-8.0898-18.539-8.0898s-13.754 2.9336-18.539 8.0898c-117.73 127.29-276.4 103.73-366.96 75-3.9258-1.2422-8.207 0.19141-10.598 3.5469-2.3867 3.3555-2.3398 7.8672 0.12109 11.172 35.414 48.117 69.188 90.234 89.062 114.38 6.6875 8.2227 16.086 13.789 26.508 15.703 172.01 30.68 258.68-69.117 262.5-73.547 4.4609-5.2734 11-8.3359 17.906-8.3906 6.9805 0.007812 13.598 3.1055 18.07 8.4609 3.6797 4.3594 90.352 104.13 262.36 73.477 10.422-1.9141 19.82-7.4805 26.508-15.703 19.781-24.141 53.555-66.258 89.062-114.38 2.4336-3.3125 2.4648-7.8125 0.078125-11.16-2.3867-3.3477-6.6523-4.7812-10.578-3.5586-90.562 28.734-249.23 52.289-366.96-75z"/>
  <path d="m563.98 972.23c-100.1-46.148-178.85-121.88-218.62-165.28-23.301-25.367-39.41-56.492-46.664-90.164-36.82-171.09-34.711-313.5-31.43-373.17 0.62109-11.273-3.0078-22.371-10.172-31.102-21.492-26.156-59.414-73.359-98.438-127.15-2.3438-3.4609-6.6914-4.9531-10.664-3.6602-3.9766 1.2969-6.6133 5.0625-6.4688 9.2383 0.75 172.83 32.484 476.48 44.531 585.7 3.1484 28.449 15.129 55.191 34.266 76.477 93.188 103.88 255.47 220.64 334.29 274.78 4.3008 2.918 9.8594 3.2305 14.457 0.80469 4.5977-2.4219 7.4844-7.1875 7.5039-12.383v-124.55c-0.003906-4.1211-1.1914-8.1562-3.4219-11.621s-5.4141-6.2188-9.1641-7.9258z"/>
  <path d="m1041.4 185.37c-39.117 53.906-77.039 100.99-98.438 127.15-7.1719 8.7266-10.809 19.824-10.195 31.102 3.2812 59.672 5.3906 202.03-31.43 373.17-7.2539 33.672-23.363 64.797-46.664 90.164-39.844 43.359-118.52 119.13-218.62 165.28-3.7305 1.7266-6.8867 4.4844-9.0977 7.9492-2.207 3.4648-3.3789 7.4883-3.3711 11.598v124.48c0.019531 5.1953 2.9062 9.9609 7.5039 12.383 4.5977 2.4258 10.156 2.1133 14.457-0.80469 78.633-54.141 241.03-170.91 334.22-274.71 19.113-21.27 31.086-47.988 34.242-76.406 12.047-109.22 43.805-412.88 44.531-585.7 0.17578-4.1914-2.4492-7.9883-6.4297-9.3008-3.9844-1.3125-8.3555 0.17969-10.703 3.6523z"/>
 </g>
</svg>

<?xml version="1.0" encoding="UTF-8" standalone="no"?>
<!DOCTYPE svg PUBLIC "-//W3C//DTD SVG 1.1//EN" "http://www.w3.org/Graphics/SVG/1.1/DTD/svg11.dtd">
<svg width="100%" height="100%" viewBox="0 0 443 512" version="1.1" xmlns="http://www.w3.org/2000/svg" xmlns:xlink="http://www.w3.org/1999/xlink" xml:space="preserve" xmlns:serif="http://www.serif.com/" style="fill-rule:evenodd;clip-rule:evenodd;stroke-linejoin:round;stroke-miterlimit:2;">
    <g transform="matrix(1,0,0,1,-141.518,-69.6762)">
        <g transform="matrix(0.482722,0,0,0.482722,73.2039,36.0419)">
            <path d="M819.94,775.1C837.569,755.909 849.76,732.366 855.26,706.897C879.283,594.397 889.733,479.417 886.385,364.427C886.209,359.447 883.944,354.767 880.143,351.54C876.342,348.31 871.362,346.829 866.416,347.458C737.646,363.7 652.436,314.786 610.946,281.833C607.801,279.317 603.899,277.946 599.872,277.946C595.845,277.946 591.942,279.317 588.798,281.833C553.032,310.38 484.618,350.716 383.698,350.716C366.874,350.696 350.065,349.614 333.378,347.482C328.44,346.88 323.479,348.38 319.706,351.618C315.929,354.853 313.686,359.529 313.526,364.497C310.178,479.477 320.628,594.447 344.651,706.947C350.155,732.416 362.346,755.959 379.971,775.15C415.76,814.15 485.041,881.13 572.421,924.19C589.761,932.698 610.066,932.698 627.405,924.19C714.85,881.088 784.155,814.1 819.945,775.1L819.94,775.1Z" style="fill:white;fill-rule:nonzero;"/>
            <path d="M618.54,77.766C613.755,72.61 607.036,69.676 600.001,69.676C592.966,69.676 586.247,72.61 581.462,77.766C463.732,205.056 305.062,181.496 214.502,152.766C210.576,151.524 206.295,152.957 203.904,156.313C201.517,159.668 201.564,164.18 204.025,167.485C239.439,215.602 273.213,257.719 293.087,281.865C299.775,290.088 309.173,295.654 319.595,297.568C491.605,328.248 578.275,228.451 582.095,224.021C586.556,218.748 593.095,215.685 600.001,215.63C606.982,215.638 613.599,218.736 618.071,224.091C621.751,228.451 708.423,328.221 880.431,297.568C890.853,295.654 900.251,290.088 906.939,281.865C926.72,257.724 960.494,215.607 996.001,167.485C998.435,164.173 998.466,159.673 996.079,156.325C993.693,152.978 989.427,151.544 985.501,152.767C894.939,181.501 736.271,205.056 618.541,77.767L618.54,77.766Z" style="fill:white;fill-rule:nonzero;"/>
            <path d="M563.98,972.23C463.88,926.082 385.13,850.35 345.36,806.95C322.059,781.583 305.95,750.458 298.696,716.786C261.876,545.696 263.985,403.286 267.266,343.616C267.887,332.343 264.258,321.245 257.094,312.514C235.602,286.358 197.68,239.155 158.656,185.364C156.312,181.903 151.965,180.411 147.992,181.704C144.015,183.001 141.379,186.766 141.523,190.942C142.273,363.772 174.007,667.422 186.054,776.642C189.203,805.091 201.183,831.833 220.32,853.119C313.508,956.999 475.79,1073.76 554.61,1127.9C558.911,1130.82 564.47,1131.13 569.067,1128.7C573.665,1126.28 576.552,1121.52 576.571,1116.32L576.571,991.771C576.567,987.65 575.38,983.615 573.149,980.15C570.919,976.685 567.735,973.931 563.985,972.224L563.98,972.23Z" style="fill:white;fill-rule:nonzero;"/>
            <path d="M1041.4,185.37C1002.28,239.276 964.361,286.36 942.962,312.52C935.79,321.247 932.153,332.344 932.767,343.622C936.048,403.294 938.158,545.652 901.337,716.792C894.083,750.464 877.974,781.589 854.673,806.956C814.829,850.315 736.153,926.086 636.053,972.236C632.323,973.963 629.166,976.72 626.955,980.185C624.748,983.65 623.576,987.673 623.584,991.783L623.584,1116.26C623.604,1121.46 626.49,1126.22 631.088,1128.65C635.686,1131.07 641.244,1130.76 645.545,1127.84C724.178,1073.7 886.575,956.932 979.765,853.132C998.878,831.862 1010.85,805.144 1014.01,776.726C1026.05,667.506 1057.81,363.846 1058.54,191.026C1058.71,186.834 1056.09,183.037 1052.11,181.725C1048.12,180.412 1043.75,181.904 1041.4,185.377L1041.4,185.37Z" style="fill:white;fill-rule:nonzero;"/>
        </g>
    </g>
</svg>
